X: 16
T: Trip To Sligo, The
Z: Nigel Gatherer
S: https://thesession.org/tunes/397#setting48527
R: jig
M: 6/8
L: 1/8
K: Emin
|:F|E2 B BGE|D2 d AFD|E2 B BGE|GFE e2 f|
gfe dcB|AFd AFD|E2 B BGB|AGF E2:|
|:B|eBe gbe|dAd faf|eBe gbg|eBe gbe|
faf gfe|d^cd AFD|EFG ABc|BGF E2:|

